icons/File_1_filled.svg

<svg width="24" height="24" viewBox="0 0 24 24" fill="none" xmlns="http://www.w3.org/2000/svg">
<path fill-rule="evenodd" clip-rule="evenodd" d="M4.25,4c0,-0.9665 0.7835,-1.75 1.75,-1.75h7.25v5.25c0,0.69036 0.5596,1.25 1.25,1.25h5.25v11.25c0,0.9665 -0.7835,1.75 -1.75,1.75h-12c-0.9665,0 -1.75,-0.7835 -1.75,-1.75zM14.75,7.25v-4.55657c0.025,0.02228 0.0494,0.04533 0.0732,0.06913l4.4142,4.41422c0.0238,0.0238 0.0469,0.04822 0.0692,0.07322z" fill="#002B51"/>
</svg>

<svg width="24" height="24" viewBox="0 0 24 24" fill="none" xmlns="http://www.w3.org/2000/svg">
<path fill-rule="evenodd" clip-rule="evenodd" d="M4.25 4C4.25 3.0335 5.0335 2.25 6 2.25H13.25V7.5C13.25 8.19036 13.8096 8.75 14.5 8.75H19.75V20C19.75 20.9665 18.9665 21.75 18 21.75H6C5.0335 21.75 4.25 20.9665 4.25 20V4ZM19.3066 7.25C19.2843 7.225 19.2612 7.20058 19.2374 7.17678L14.8232 2.76256C14.7994 2.73876 14.775 2.71571 14.75 2.69343V7.25H19.3066Z" fill="#002B51"/>
</svg>
